icons/circle/48/elektra.svg

<svg xmlns="http://www.w3.org/2000/svg" viewBox="0 0 48 48">
  <defs>
    <linearGradient id="a" x1="1" x2="47" gradientUnits="userSpaceOnUse">
      <stop stop-color="#606163"/>
      <stop offset="1" stop-color="#6a6b6e"/>
    </linearGradient>
  </defs>
  <path d="M36.31 5c5.859 4.062 9.688 10.831 9.688 18.5 0 12.426-10.07 22.5-22.5 22.5-7.669 0-14.438-3.828-18.5-9.688a23.24 23.24 0 0 0 3.781 4.969 22.923 22.923 0 0 0 15.469 5.969c12.703 0 23-10.298 23-23a22.92 22.92 0 0 0-5.969-15.469A23.216 23.216 0 0 0 36.31 5zm4.969 3.781A22.911 22.911 0 0 1 47.498 24.5c0 12.703-10.297 23-23 23a22.909 22.909 0 0 1-15.719-6.219C12.939 45.425 18.662 48 24.998 48c12.703 0 23-10.298 23-23 0-6.335-2.575-12.06-6.719-16.219z" opacity=".05"/>
  <path d="M41.28 8.781a22.923 22.923 0 0 1 5.969 15.469c0 12.703-10.297 23-23 23A22.92 22.92 0 0 1 8.78 41.281 22.911 22.911 0 0 0 24.499 47.5c12.703 0 23-10.298 23-23A22.909 22.909 0 0 0 41.28 8.781z" opacity=".1"/>
  <path d="M31.25 2.375C39.865 5.529 46 13.792 46 23.505c0 12.426-10.07 22.5-22.5 22.5-9.708 0-17.971-6.135-21.12-14.75a23 23 0 0 0 44.875-7 23 23 0 0 0-16-21.875z" opacity=".2"/>
  <path d="M24 1c12.703 0 23 10.297 23 23S36.703 47 24 47 1 36.703 1 24 11.297 1 24 1z" transform="rotate(-90 24 24)" fill="url(#a)"/>
  <path d="M40.03 7.531A22.922 22.922 0 0 1 45.999 23c0 12.703-10.297 23-23 23A22.92 22.92 0 0 1 7.53 40.031C11.708 44.322 17.54 47 23.999 47c12.703 0 23-10.298 23-23 0-6.462-2.677-12.291-6.969-16.469z" opacity=".1"/>
  <path d="M27.23 11a12 12 0 0 0-11.781 9.74A15 15 0 0 1 27.23 15a15 15 0 0 1 11.768 5.701A12 12 0 0 0 27.23 11zm-11.625 4.463a12 12 0 0 0-3.302 14.889 12 12 0 0 0 14.027 6.074 15 15 0 0 1-10.463-7.89 15 15 0 0 1-.262-13.073m18.459 2.074a15 15 0 0 1-.234 13.104 15 15 0 0 1-10.422 7.897 12 12 0 0 0 13.982-6.081 12 12 0 0 0-3.33-14.919" opacity=".1"/>
  <g>
    <path d="M14.605 14.462a12 12 0 0 0-3.302 14.889 12 12 0 0 0 14.027 6.076 15 15 0 0 1-10.463-7.891 15 15 0 0 1-.262-13.074" fill="#5bdb7c"/>
    <path d="M38 19.701A12 12 0 0 0 26.23 10a12 12 0 0 0-11.779 9.74A15 15 0 0 1 26.23 14 15 15 0 0 1 38 19.701" fill="#edeb85"/>
    <path d="M22.408 37.538a12 12 0 0 0 13.982-6.081 12 12 0 0 0-3.33-14.919 15 15 0 0 1-.23 13.103 15 15 0 0 1-10.422 7.897" fill="#aeb4d2"/>
  </g>
</svg>

<svg xmlns="http://www.w3.org/2000/svg" viewBox="0 0 48 48">
 <defs>
  <linearGradient id="linearGradient3796" x1="1" x2="47" gradientUnits="userSpaceOnUse">
   <stop style="stop-color:#606163;stop-opacity:1"/>
   <stop offset="1" style="stop-color:#6a6b6e;stop-opacity:1"/>
  </linearGradient>
 </defs>
 <g>
  <path d="m 36.31 5 c 5.859 4.062 9.688 10.831 9.688 18.5 c 0 12.426 -10.07 22.5 -22.5 22.5 c -7.669 0 -14.438 -3.828 -18.5 -9.688 c 1.037 1.822 2.306 3.499 3.781 4.969 c 4.085 3.712 9.514 5.969 15.469 5.969 c 12.703 0 23 -10.298 23 -23 c 0 -5.954 -2.256 -11.384 -5.969 -15.469 c -1.469 -1.475 -3.147 -2.744 -4.969 -3.781 z m 4.969 3.781 c 3.854 4.113 6.219 9.637 6.219 15.719 c 0 12.703 -10.297 23 -23 23 c -6.081 0 -11.606 -2.364 -15.719 -6.219 c 4.16 4.144 9.883 6.719 16.219 6.719 c 12.703 0 23 -10.298 23 -23 c 0 -6.335 -2.575 -12.06 -6.719 -16.219 z" style="opacity:0.05"/>
  <path d="m 41.28 8.781 c 3.712 4.085 5.969 9.514 5.969 15.469 c 0 12.703 -10.297 23 -23 23 c -5.954 0 -11.384 -2.256 -15.469 -5.969 c 4.113 3.854 9.637 6.219 15.719 6.219 c 12.703 0 23 -10.298 23 -23 c 0 -6.081 -2.364 -11.606 -6.219 -15.719 z" style="opacity:0.1"/>
  <path d="m 31.25 2.375 c 8.615 3.154 14.75 11.417 14.75 21.13 c 0 12.426 -10.07 22.5 -22.5 22.5 c -9.708 0 -17.971 -6.135 -21.12 -14.75 a 23 23 0 0 0 44.875 -7 a 23 23 0 0 0 -16 -21.875 z" style="opacity:0.2"/>
 </g>
 <g transform="matrix(0,-1,1,0,0,48)" style="fill:url(#linearGradient3796);fill-opacity:1">
  <path d="M 24,1 C 36.703,1 47,11.297 47,24 47,36.703 36.703,47 24,47 11.297,47 1,36.703 1,24 1,11.297 11.297,1 24,1 z"/>
 </g>
 <g>
  <path d="m 40.03 7.531 c 3.712 4.084 5.969 9.514 5.969 15.469 0 12.703 -10.297 23 -23 23 c -5.954 0 -11.384 -2.256 -15.469 -5.969 4.178 4.291 10.01 6.969 16.469 6.969 c 12.703 0 23 -10.298 23 -23 0 -6.462 -2.677 -12.291 -6.969 -16.469 z" style="opacity:0.1"/>
 </g>
 <path d="m 27.23 11 a 12 12 0 0 0 -11.781 9.74 15 15 0 0 1 11.781 -5.74 15 15 0 0 1 11.768 5.701 12 12 0 0 0 -11.768 -9.701 z M 15.605 15.463 A 12 12 0 0 0 12.303 30.352 12 12 0 0 0 26.33 36.426 15 15 0 0 1 15.867 28.536 15 15 0 0 1 15.605 15.463 m 18.459 2.074 A 15 15 0 0 1 33.83 30.641 15 15 0 0 1 23.408 38.538 12 12 0 0 0 37.39 32.457 12 12 0 0 0 34.06 17.538" style="fill:#000;opacity:0.1;fill-opacity:1;stroke:none"/>
 <g>
  <path d="M 14.605 14.462 A 12 12 0 0 0 11.303 29.351 12 12 0 0 0 25.33 35.427 15 15 0 0 1 14.867 27.536 15 15 0 0 1 14.605 14.462" style="fill:#5bdb7c;opacity:1;fill-opacity:1;stroke:none"/>
  <path d="M 38 19.701 A 12 12 0 0 0 26.23 10 12 12 0 0 0 14.451 19.74 15 15 0 0 1 26.23 14 15 15 0 0 1 38 19.701" style="fill:#edeb85;opacity:1;fill-opacity:1;stroke:none"/>
  <path d="M 22.408 37.538 A 12 12 0 0 0 36.39 31.457 12 12 0 0 0 33.06 16.538 15 15 0 0 1 32.83 29.641 15 15 0 0 1 22.408 37.538" style="fill:#aeb4d2;opacity:1;fill-opacity:1;stroke:none"/>
 </g>
</svg>
